/* XPM */
static char *arc64_oq2fr[] = {
/* columns rows colors chars-per-pixel */
"256 64 247 2 ",
"   c #010101",
".  c #090603",
"X  c #0C0905",
"o  c #02060C",
"O  c #040B0D",
"+  c #0E0D0D",
"@  c #0B060C",
"#  c #130B05",
"$  c #1A0E05",
"%  c #120E0C",
"&  c #1B0E0B",
"*  c #170504",
"=  c #13110E",
"-  c #1C120B",
";  c #191207",
":  c #060D10",
">  c #141412",
",  c #1A1612",
"<  c #1B1A16",
"1  c #1C1D19",
"2  c #0E1011",
"3  c #230E0A",
"4  c #2B0E0A",
"5  c #280802",
"6  c #310D0A",
"7  c #390C07",
"8  c #241306",
"9  c #23130B",
"0  c #2B130A",
"q  c #24190C",
"w  c #2C1A0C",
"e  c #2B1606",
"r  c #33110A",
"t  c #3B130A",
"y  c #331C0B",
"u  c #3A1D0A",
"i  c #391404",
"p  c #231B13",
"a  c #2C1E11",
"s  c #221F19",
"d  c #311F10",
"f  c #3C220D",
"g  c #36260D",
"h  c #24211B",
"j  c #2C2317",
"k  c #342313",
"l  c #3B2513",
"z  c #3C2B19",
"x  c #392917",
"c  c #33270F",
"v  c #2B2923",
"b  c #322E28",
"n  c #3C3327",
"m  c #1F201C",
"M  c #470902",
"N  c #560C02",
"B  c #431309",
"V  c #4C1309",
"C  c #481606",
"Z  c #541405",
"A  c #541308",
"S  c #5A1606",
"D  c #680A03",
"F  c #641406",
"G  c #6B1305",
"H  c #661A04",
"J  c #741305",
"K  c #7C1404",
"L  c #791A06",
"P  c #7B0702",
"I  c #43250D",
"U  c #4B2A0D",
"Y  c #482609",
"T  c #532C0D",
"R  c #582805",
"E  c #59320B",
"W  c #422B15",
"Q  c #4B2B11",
"!  c #432D19",
"~  c #522E11",
"^  c #45311B",
"/  c #4C331B",
"(  c #493515",
")  c #553212",
"_  c #5B3312",
"`  c #543A1D",
"'  c #56391A",
"]  c #4B310C",
"[  c #652805",
"{  c #762403",
"}  c #6A3608",
"|  c #783805",
" . c #623614",
".. c #663C14",
"X. c #683B16",
"o. c #713E17",
"O. c #443525",
"+. c #533B21",
"@. c #5A3D23",
"#. c #574318",
"$. c #674519",
"%. c #754418",
"&. c #75581E",
"*. c #714911",
"=. c #5C4124",
"-. c #5D4329",
";. c #634425",
":. c #6B4C2A",
">. c #694925",
",. c #74512D",
"<. c #795826",
"1. c #785631",
"2. c #704F25",
"3. c #7E6323",
"4. c #950E01",
"5. c #871704",
"6. c #981603",
"7. c #8B0D01",
"8. c #A31502",
"9. c #AA1601",
"0. c #A41B02",
"q. c #AB1B02",
"w. c #B41D01",
"e. c #B81901",
"r. c #892802",
"t. c #982603",
"y. c #873805",
"u. c #963B04",
"i. c #A42202",
"p. c #AA2502",
"a. c #B42401",
"s. c #BC2C01",
"d. c #B82701",
"f. c #BC3202",
"g. c #B63902",
"h. c #A63C01",
"j. c #C32D01",
"k. c #C62800",
"l. c #C43301",
"z. c #CB3401",
"x. c #CC3C01",
"c. c #C53D01",
"v. c #D43D01",
"b. c #D73900",
"n. c #D02901",
"m. c #E13E01",
"M. c #C01C02",
"N. c #8E4C12",
"B. c #B74704",
"V. c #AC5003",
"C. c #9B681D",
"Z. c #B56904",
"A. c #835C32",
"S. c #815A24",
"D. c #8C6B25",
"F. c #876624",
"G. c #956A23",
"H. c #987429",
"J. c #8A6437",
"K. c #936A3A",
"L. c #9A713D",
"P. c #A27D2B",
"I. c #A1783E",
"U. c #CB4301",
"Y. c #D44301",
"T. c #DB4401",
"R. c #DC4B01",
"E. c #D54B01",
"W. c #DA5502",
"Q. c #C45703",
"!. c #E34D01",
"~. c #E74701",
"^. c #E55301",
"/. c #E95501",
"(. c #EB5B01",
"). c #E55B02",
"_. c #F25B01",
"`. c #D46804",
"'. c #EB6402",
"]. c #EA6903",
"[. c #F46C01",
"{. c #F86602",
"}. c #EC7402",
"|. c #F47402",
" X c #F47A02",
".X c #FB7C02",
"XX c #FC7302",
"oX c #9D7743",
"OX c #A67C44",
"+X c #AF8830",
"@X c #CF8F06",
"#X c #FB8302",
"$X c #FC8C03",
"%X c #F48704",
"&X c #FB9403",
"*X c #FC9C04",
"=X c #F79807",
"-X c #EA8F05",
";X c #D2A708",
":X c #FBA304",
">X c #FDAC05",
",X c #FCA808",
"<X c #FDB304",
"1X c #FDBB03",
"2X c #FDBD0B",
"3X c #FCB408",
"4X c #FEBC14",
"5X c #ECB30C",
"6X c #E5BB21",
"7X c #FDC40B",
"8X c #FDCC0B",
"9X c #FDC805",
"0X c #FDD303",
"qX c #FDD40A",
"wX c #FDDA09",
"eX c #FDC916",
"rX c #FED313",
"tX c #FEDB16",
"yX c #FEE416",
"uX c #FDDC23",
"iX c #FDDB2B",
"pX c #F8CC2A",
"aX c #FDE324",
"sX c #FDE32E",
"dX c #FEE738",
"fX c #B8894B",
"gX c #C99752",
"hX c #C99854",
"jX c #D4A359",
"kX c #E7B363",
"lX c #E8B45D",
"zX c #FDEA49",
"xX c #FDEC53",
"cX c #FEEA59",
"vX c #FEF153",
"bX c #FEED67",
"nX c #FEF169",
"mX c #FEF377",
"MX c #FEED75",
"NX c #FDDD4E",
"BX c #FDF887",
"VX c #FEFA94",
"CX c #FDFB9C",
"ZX c #FEFCA4",
"AX c #FEFEAB",
"SX c #FEFFB6",
"DX c #FFFFC4",
/* pixels */
"                                                                                                                                                                                                                                                                                                                                                                                                                                                                                                                                ",
"                                                                                                                                                                                                                                                                                                                                                                                                                                                                                                                                ",
"                                          . .                       . X .         X                                                                                   . .                       . X .                                                                                                 X           .             . .       . X                                                                                     . .   .                   . X .       . .                                                     ",
"                                        H.&.y <.D.F.x 3.F.( H.&.G.&.F.( #     ; &.#.$.                                                                              H.&.c 2.D.F.c &.F.( H.<.H.&.D.( ;       ( H.                                                                                  <.F.l W H.F.` #.F.$.&.D.G.2.H.#.c       y #.F.#                                                                             X H.$.w 3.F.F.g &.F.( H.&.H.&.F.( ;     . ( <.&.                                                  ",
"                                        +XW   H.<.D.&.P.<.P.P.' P.D.H.z #     q D.#.3.                                                                              +X(   F.&.H.2.P.<.P.P.#.+XG.P.( ;       #.+Xq                                                                                 D.<.  ( P.3.&.+X$.+XH.&.F.F.+X#.a       ` H.$..                                                                             X +Xg   H.&.D.&.P.F.H.P.` +XD.H.( ;     . ( F.F.                                                  ",
"                                        #     X   X # .   X X   X X ; - X         q                                                                                 X     X   # # .   X X   X X ; - X       ; ; ;                                                                                 X     . .   ; X   X #   . X # ; ;       - q #                                                                                 X     #   X # .   X X   X X ; - X       ; ; .                                                   ",
"                                                                                                                                                                                                                                                                                                                                                                                                                                                                                                                                ",
"    + + + + + + + + + + + + + + + + + + + + + + + + + + + + + + + + + + + + + + + + + + + + + + + + + + + + + + + + + + + . + + + + + + + + + + + + + + + + + + + + + + + + + + + + + + + + + + + + + + + + + + + + + + + + + + + + + + + + + + + + + + +   + + + + + + + + + + + + + + + + + + + + + + + + + + + + + + + + + + + + + + + + + + + + + + + + + + + + + + + + + + + + + . . + + + + + + + + + + + + + + + + + + + + + + + + + + + + + + + + + + + + + + + + + + + + + + + + + + + + + + + + + + + + + + + + +     ",
"    + + + + + + + + + + + + + + + + + + + + + + + + + + + + + + + + + + + + + + + + + + + + + + + + + + + + + + + + + + + . + + + + + + + + + + + + + + + + + + + + + + + + + + + + + + + + + + + + + % = + + + + + + + + + + + + + + + + + + + + + + + + . + + + + + + + + + + + + + + + + + + + + + + + + + + + + + + + + + + + + + @ + + + + + + + + + + + + + + + + + + + + + + + + . + + + + + + + + + + + + + + + + + + + + + + + + + + + + + + + + + + + + + + + + + + + + + + + + + + + + + + + + + + + + + + + + +     ",
"    + + + + + + + + + + + + + + + + + + + + + + + + + + + + + + + + + + + + + + + + + + + + + + + + + + + + + + + + + + + . + + + + + + + + + + + + + + + + + + + + + + + + + O @ + + + & % + + + O I (.[ O % + + + + + + + + + + + + + + + + + + + + + + . + + + + + + + + + + + + + + + + + + + + + + + + + + + + + + + + + + + + % 9 - + + + + + + + + + + + + + + + + + + + + + + + . + + + + + + + + + + + + + + + + + + + + + + + + + + + + + + & % + + + + + + + % % + + + + + + + + + + + + + + + + + + + + + + + +     ",
"    + + + + + + + + + + + + + + + + + + + + % C 0 + + + O + + % % + + + + + + + - 0 % + + + + + + + + + + + + + + + + + + . + + + + + + + + + + + + + + + + + + + + + + + + + t y + + + - & + + + @ f r.4 + + + + + + + + + + + + + + + + + + + + + + + + . + + + + + + + + + + + + + + + + + + + % + + + + + + + + + % % - 8 % + @ w W.} O % + + + + + + + + + + + + + + + + + + + + + . + + + + + + + + + + + + + + + + + + + + & % + + % & & & + % & % + + + + % @ u f.V @ % + + + + + + + + + + + + + + + + + + + + + +     ",
"    + + + + + + + + + + + + + + + + + + + + - g.[ O + % 3 & O + % % + + + + + % 8 0 % + + + + + + + + + + + + + + + + + + . + + + + + + + + + + + + + + + + + + + + + + + + + V.Z.+ % + + + + + + + @ + + + + + + + + + + + + + + + + + + + + + + + + + + . + + + + + + + + + + + + + + + + + + + O + + + + + + + % % O 9 C i & + + + = % + + + + + + + + + + + + + + + + + + + + + + + . + + + + + + + + + + + + + + + + + + + + 3 & + + 8 8.9.J + + O + + + + + % o ]  XE o % + + + + + + + + + + + + + + + + + + + + + +     ",
"    + + + + + + + + + + + + + + + + + + + + + + + + O 4 q.5.3 + O + + % + + + o + + + + + + + + + + + + + + + + + + + + + . + + + + + + + + + + + + + + + + + + + + + + + + + = % + + + O + 4 & + % 8 + + + + + + + + + + + + + + + + + + + + + + + + + + . + + + + + + + + + + + + + + + + + + % t 0 + + + + + + + + 4 & O + + + + + + + + + + O O + + + + + + + + + + + + + + + + + + . + + + + + + + + + + + + + + + + + + + + + + + + 3 5.q.a.t.t 3 3 O + % + + + + % + + + + + + + + + + + + + + + + + + + + + + + + +     ",
"    + + + + + + + + + + + + + + + + + + + + + + + + + 3 K 5.w.A 3 & + + % @ 0 | u @ + + + + + + + + + + + + + + + + + + + . + + + + + + + + + + + + + + + + + + + + + + + + + + + + + + 3 B 9.V O t Z + + + + % % % + + + + + + + + + + + + + + + + + + + o + + + + + + + + + + + + + + + + + + 8 i.S O % + + + + 9 t p.J 3 & + O + % & % + + + t B + + + + + + + + + + + + + + + + + + . + + + + + + + + + + + + + + + + + + + + + + + + + O A 0.n.d.a.q.t & O + + + + + + + + % + + + + + + + + + + + + + + + + + + + + +     ",
"    + + + + + + + + + + + + + + + + + + + % & % + + + + O r k.k.a.K V & O o f `.T o % + + + + + + + + + + + + + + + + + + . + + + + + + + + + + + + + + + + + + + + % % + % % + + + + + 5.q.6.7 O & & + + + O o % & % % + + + + + + + + + + + + + + + + + . + + + + + + + + + + + + + + + + + + + O + + + + + % O J M.j.j.d.L V 6 + O + + + + + L r.% + + + + + + + + + + + + + + + + + . + + + + + + + + + + + + + + + % + + + + % % + + + + O 3 L s.b.T.j.5.t 0 O % + + + + O O % % + + + + + + + + + + + + + + + + + + +     ",
"    + + + + + + + + + + + + + + + + + + + % 8 3 % + + + + 3 G p.l.z.d.K t % O o @ + + + + + + + + + + + + + + + + + + + + . + + + + + + + + + + + + + + + + + + + + O o + % & % + + + + 5.a.d.J t + O + + @ u [ - + % % + + + + + + + + + + + + + + + + + o + + + + + + + + + + + + + + + + + + + + + + + % + + + V L G d.m.v.j.d.A 6 O O % + + @ @ + + + + + + + + + + + + + + + + + + . + + + + + + + + + + + + + + + O O + + + & & 3 % + + + + O G i.T./.Y.w.5.6 + + + + + t B 8 & + + + + + + + + + + + + + + + + + + +     ",
"    + + + + + + + + + + + + + + + + + + + + + & % + + + + + O G w.^.v.d.9.S 6 % % + % % + + + + + + + + + + + + + + + + + . + + + + + + + + + + + + + + + + + + % + Y | % + + % % + + + 5.k.Y.z.d.A 6 O + o u.{.y + % + + + + + + + + + + + + + + + + + + . + + + + + + + + + + + + + + + + + + + + + + @ @ + + + + O O B K z.T.!.z.p.V 4 O + % + + + + + + + + + + + + + + + + + + + + . + + + + + + + + + + + + + + % S B + + + + & r % + O + + + J i.x.[.'.Y.l.i.V r + + + F F - % + + + + + + + + + + + + + + + + + + +     ",
"    + + + + + + + + + + + + + + + + + + & 3 + + + + + + + 3 A 5.q.T.'.W.s.w.J O + % & & + + + + + + + + + + + + + + + + + . + + + + + + + + + + + + + + + + + + % + } B.% + + + + + % + B J 0.Y.(.j.6.V 4 O B H & + + + + + + + + + + + + + + + + + + + + . + + + + + + + + + + + + + + + + + + + + + @ | y.+ + + + + % O - 6.s.v.!.!.k.6.A 3 O + + + + + + + + + + + + + + + + + + + + . + + + + + + + + + + + + + + % { S + + + + + % O + V & & A i.l.R.$X.X{.Y.s.q.J O % + O O o O + + + + + + + + + + + + + + + + + + +     ",
"    + + + + + + + + + + + + + + + + + + V.V.% % + + + % + t w.s.x.~. X#X^.d.5.S r O + + 3 & % + + + + + + + + + + + + + + . + + + + + + + + + + + + + + + + + + + + @ # % + + + 3 G B % O 9 6.l.^.R.x.q.5.S 3 O + + + + + + + + + + + + + + + + + + + + + . + + + + + + + + + + + + + + + + + + + + + @ | y.+ + + + + % + & 6.d.j.(._.T.s.8.J A & + + & N 4 + + + + + + + + + + + + + + . + + + + + + + + + + + + + + + O O o @ + + + O B G 6.F K b.^.|.&X$X}.Y.s.6.A t + + + + 9 V.E @ + + + + + + + + + + + + + + + + + +     ",
"    + + + + + + + + + + + + + + + + + + } *.& % + + + + O 6 9.z.!.(.#X&X#XT.l.w.S O + & t.S O % + + + + + + + + + + + + + . + + + + + + + + + + + + + + + + + + + + + + + + % O 0 e.S O + 4 K i.l.|.[.x.s.9.K F & + + + + 3 Z 3 + + + + + + + + + + + + + . + + + + + + + + + + + + + + + + + + + + + + o o + + + + + % + % 6.d.j.^._.{.R.d.a.8.9 + O f {.| o % + + + + + + + + + + + + . + + + + + + + + + + + + + + + @ f Q.U @ O 3 G 6.9.p.z.R.%X*X:X&X/.v.q.F 6 O + + + + + - V.[ O + + + + + + + + + + + + + + + + + +     ",
"    + + + + + + + + + + + + + + + + + + o o + + + + O & G 5.l.).|.*X>X:X$X!.x.9.A O % - C 0 + + + + + + + + + + + + + + + . + + + + + + + + + + + + + + + + + + % 4 % + + + O A K 8.5.G % 9 6.f.T. X.XXXW.d.q.8.3 O + + + % r & + + + + + + + + + + + + + . + + + + + + + + + + + + + + + + + + + + + O L 5.+ + + + + O r K 6.s.T.%X$XXX(.x.p.6.9 + + q } g + + + + + + + + + + + + + + . + + + + + + + + + + + + + + + + q u.C + F 5.9.f.x.T.[.*X7X7X*X/.l.t.G & + G B + + + + + * # + + + + + + + + + + + + + + + + + + +     ",
"    + + + + + + + + + + + + + + + + + + % = + 0 K K J 5.b.T.[.,X7X7X3X X/.z.a.6.V O % + O O + + + + + + + + + + + + + + + . + + + + + + + + + + + + + + + + + % 3 S 0 + O B 5.d.j.T.d.4.J 5.d.R.[.:X:X.X'.!.d.6.0 + % % + + + + + + + + + + + + + + + + + o + + + + + + + + + + + + + + + + + 0 0 + + + r V G J 5.r + G 6.d.v.}.*X>X:XXXW.d.i.6.3 O + + o @ + + + + + + + + + + + + + + . + + + + + + + + + + + + + + + + + @ % - 8.d.x.T./..X,X7X7X*X|.T.l.p.5.5.J t 0 + + + % % + + + + + + + + + + + + + + + + + + + + +     ",
"    + + + + + + + + + + + + + + + + + + + + & S w.w.b.T.|.%X7XeX2X$X|.v.a.6.G & 3 & % + + + + + + + + + + + + + + + + + + . + + + + + + + + + + + + + + + + + % % & r i O A w.Y.).$X].Y.s.s./.%X>X8X7X*X X/.s.6.3 @ % % + + @ + + + + + + + + + + + + + + . + + + + + + + + + + + + + + + + % & & + + % O % 6.9.9.6.5.j.T.).=X2XeX>X&XR.f.6.A & % + + + % + + + + + + + + + + + + + + + . + + + + + + + + + + + + + + + 0 8 = + % 7.d.!.'.$X8XeXrX0X7X,X X(.T.z.l.a.5.S % % + + + + + + + + + + + + + + + + + + + + + + + +     ",
"    + + + + + + + + + + + + + + + + % % % % S q.z.!.[.#X<X2XyX3X&X'.(.z.p.7 6 + % % + + + + + + + + + + + + + + + + + + + . + + + + + + + + + + + + + + + + + O 3 6.S r & H d.T.].4X:X$X].}.:XeXiXrX2X#XW.j.r.A 3 3 + + + 9 R 0 + + + + + + + + + + + + + o + + + + + + + + + + + + + + + + + + + % + O % t 6.a.x.Y.!.[.=XpXxXpX3X[.!.w.K & % + + + + + + + + + + + + + + + + + + + + + . + + + + + + + + + + + + + + + + = 8 % % + Z j.'.$X8XxXnXdXrX8X7X#X[.(.^.Y.q.8.6.B O + % Z r + + + + + + + + + + + + + + + + + + +     ",
"    + + + + + + + + + + + + + + % O S i.- O F w.Y.XX<X8XiXuXwX2X>X:X#X^.x.6.J 4 % O O = r.Z + % + + + + + + + + + + + + + . + + + + + + + + + + + + + + + + + 9 V 6.9.p.4.d.R.R.(..X*X1X>X2XsXxXnX2X*X_.Y.k.A O F 8.t 0 o U `.T O % + + + + + + + + + + + . + + + + + + + + + + + + + + + & & % + O % 0 J 9.l.R.{.|.$XeXcXBXrX*X|.Y.s.5.A + + O + - { C + + + + + + + + + + + + + + + + . + + + + + + + + + + + + + + % 4 & O + % 0 A 7.l.).:XrXzXCXzXtX8X&X$X#X(.~.).Y.w.L V % 9 d.H O % + + + + + + + + + + + + + + + + +     ",
"    + + + + + + + + + + + + + + % O [ B.V 4 8 K x.{.:XeXBXmXsXtXqX<X>X$X|.s.p.9.G t 6 B Q.} O % + + + + + + + + + + + + + . + + + + + + + + + + + + + + + + % 5.q.p.R.[.q.l.).%X&X&X2XyXiXzXSXxXqX&X#X[.W.b.{ 6 p.s.0.5.% + + + + + + + + + + + + + + + + . + + + + + + + + + + + + + + @ y.g.- % r F 8.0.f.'.[.{.:XqXBXBXsX>X|.^.d.7.r & O 0 t @ = B.r.@ % + + + + + + + + + + + + + + . + + + + + + + + + + + + + + 8 R.g.4 % @ i.d.p.v.!..XeXzXCXZXxX0X2X&X_.(.|.$X}.T.i.G 3 + - % + + + + + + + + + + + + + + + + + + +     ",
"    + + + + + + + + + + + + + + + + O O 5.6.6 N j.R.=X3XzXVXZXxXaXtXtX>X$X|.'.U.Y.v.w.5.@ @ + + + + + + + + + + + + + + + . + + + + + + + + + + + + + + + + % 6.d.l.].&X}. X.X3X8XqXzXBXCXVXzXuX9X:X*X$X].T.v.z.Y.v.5.r % % + + + + + + + + + + + + + + + . + + + + + + + + + + + + + + @ *.Z.- & 8.a.s.b.^.#X&X:XpXvXCXcX9X*X[.^.d.8.5.F r 5.9.V t & % + + + + + + + + + + + + + + + + . + + + + + + + + + + + + + + - N.V.9.G C 7.f.{. X%X:X1XtXnXVXBXzX7X:X|.&X:X[.W.s.K 4 + + B 0 + + + + + + + + + + + + + + + + + + +     ",
"    + + + + + + + + + + + + + + + + r S p.l.z.w.z.(.&X<XwXbXAXCXmXwXwX7X3X:X&XXXR.a.8.5.+ + + + + + + + + + + + + + + + + . + + + + + + + + + + + + + + + + + A K 8.Y.XX>X<X:X7X8X0XuXcXVXVXxXuX0XtX8X&X|./. X*XE.z.5.V 0 % + + + + + + + + + + + + + + + . + + + + + + + + + + + + + + + + @ + 0 6.f./.[.%X2X7X0XbXAXZXxX9X>X#X|.Y.j.7.6.w.d.s.e.9.C 0 + + + + + + + + + + + + + + + + . + + + + + + + + + + + + + + + o 6 w.x./.Q.W./.%X>XwXaXaX0XmXZXCXtX0X7X1X*X!.T.l.f.s.F B & % + + + + + + + + + + + + + + + + + + +     ",
"    + + + + + + + + + + + + + + + O A 8.a.x.$X%X X#X>XeXaXyXzXVXZXnXxXaXwX>X|.v.z.j.a.6.G t O + + + + + + + + + + + + + + . + + + + + + + + + + + + + + + + + + - t 5.s.'.&X7X8XuXbXsX0XBXAXSXBXvXwX0X7X3X:X2X2X).!.s.e.V O % + + + + + + + + + + + + + + . + + + + + + + + + + + + + + + = = % 0 D t.b.%X>XqXsXbXnXnXZXVXcX7X1X2X|.'.z.W.%X).T.H 7 8 - + % + + + + + + + + + + + + + + . + + + + + + + + + + + + + + + + t 6.g.W.&X:X=X:X>XqXaXzXbXVXZXVXdXaX0X0X1X%X%X$X'.E.k.6.+ + + + + + + + + + + + + + + + + + + + +     ",
"    + + + + + + + + + + + + + + + + 3 r 6.j.[.$X1X7X0XdXBXnXvXVXAXAXBXzXzXeX&XT.].%X(.T.e.G O % + + + + + + + + + + + + + . + + + + + + + + + + + + + + + + + + 0 F t.v.(. X,XwXdXSXVXmXCXZXZXZXZXMXxXyXtXqX<X X~.j.r.t & + + + + + + + + + + + + + + + + o + + + + + + + + + + + + + + + + % F 5.g.f.d./..X1XNXDXzXaXZXAXAXcXuX0X1X>X*X*X$XR.d.{ S % + + + + + + + + + + + + + + + + + . + + + + + + + + + + + + + + % + C j.z.v.%X3XtXqXaXmXbXmXZXZXZXCXBXmXbXaXwX3X*X.XU.d.A 6 + + + + + + + + + + + + + + + + + + + + +     ",
"    + + + + + + + + + + + + + + + + + O V S G ~.#X<X9XuXxXmXZXCXZXZXVXVXAXzX<X*X$X.Xu.H i & + + + + + + + + + + + + + + + . + + + + + + + + + + + + + + + + + + & B S r./.XX&X1XrXsXvXVXCXZXZXZXCXAXmXwX2X*X[.c.H B * O + + + + + + + + + + + + + + + + + . + + + + + + + + + + + + + + + + % 4 C G g._.[.#X1XeXdXtXuXCXZXZXvXdXxXaXwX9X-X~.i.N C 0 % + + + + + + + + + + + + + + + + + . + + + + + + + + + + + + + + + + 3 S H g.{.$X<X9XuXBXVXCXCXZXAXZXAXBXdXeX<X#XW.J Z 5 + O + + + + + + + + + + + + + + + + + + + + +     ",
"    + + + + + + + + + + + + + + + + % @ .  .*.7 V.$X7XwXyXdXCXZXAXVXCXMXuXrX1X*XW.C Y T 8   + + + + + + + + + + + + + + + . + + + + + + + + + + + + + + + + + % o X *.*.i r./.*X>X:X3X2XMXCXCXVXBXpX5X>X$X{.{ i T I   + + + + + + + + + + + + + + + + + + o + + + + + + + + + + + + + + + + %   w *.} Z `.$X7XqX0XxXBXZXAXAXBXBXVXaX9X#X/.M R } w   % + + + + + + + + + + + + + + + + + . + + + + + + + + + + + + + + + +   f ..} N g.XX*X<X2XrXdXCXCXCXVXxXpX1X1X*Xt.i U f   + % + + + + + + + + + + + + + + + + + + + + +     ",
"    + + + + + + + + + + + + + + + + + +   k $.R Q.#X-X@X;X;XeXbXBX4X-XB.i.V.;XXX'.} T 9 X . + + + + + + + + + + + + + + + . + + + + + + + + + + + + + + + + + + + . l %.Y r.8.y.| [ r.U.].%XeX-XN.[ i Y h.n.Z E y -   + + + + + + + + + + + + + + + + + + . + + + + + + + + + + + + + + + + +   # ' ' R }.$X<X@X@X6XdXBXBXBXxXpX;X@X-X#X).[ *.l #   + + + + + + + + + + + + + + + + + + . + + + + + + + + + + + + + + + +   & / _ B K d.[ | r.Z.5XrX2X5X`.u.{ } Z.{.{ E f -   + + + + + + + + + + + + + + + + + + + + + + +     ",
"    + + + + + + + + + + + + + + + + + +   q ! # M s.Y f I Y { `.%X~.i U ..p 3 d.r.% - - X . + + + + + + + + + + + + + + + . + + + + + + + + + + + + + + + + + + +   q z . 5 4.* x <.N.8 D q.{.[ ] G.z : M 4.. 9 p %   + + + + + + + + + + + + + + + + + + . + + + + + + + + + + + + + + + + + . . k j $ V.W.Y ) U Y y.%X>X8XV.C I I w `.B.0 w - X . + + + + + + + + + + + + + + + + + + . + + + + + + + + + + + + + + + + . . k d   N D = ` S.Y R .X~.5.y C.` > * 9.5 X q %   + + + + + + + + + + + + + + + + + + + + + + +     ",
"    + + + + + + + + + + + + + + + + + +   y $...y *   h n O.  M P P * x n < o 5 * f Q l . @ + + + + + + + + + + + + + + + . + + + + + + + + + + + + + + + + + + %   w ' X.y M * 2 h O.# * M 9.M 1 n 1 O 5 B w ) W # . + + + + + + + + + + + + + + + + + + . + + + + + + + + + + + + + + + + + + . / ' U 4 N   h +./ . w.m.).* z -.j o N M y Q l   + + + + + + + + + + + + + + + + + + + . + + + + + + + + + + + + + + + + +   / X.E r 5 + 1 n q 5 D D 7 > b 1 + * 7 y Q l #   + + + + + + + + + + + + + + + + + + + + + + +     ",
"    + + + + + + + + + + + + + + + + + +   + < / %...%.$.' &...} N.| Q ^ ! W Q ] _ Q , 2   . + + + + + + + + + + + + + + + . + + + + + + + + + + + + + + + + + + +   + < / .._ *.%.' $...E } } U / / ! Q f Y ) a + . . + + + + + + + + + + + + + + + + + + . + + + + + + + + + + + + + + + + + +   > j ....) _ / ^ +.l { t.r.y z ^ k w ) ) Q p 2   + + + + + + + + + + + + + + + + + + + . + + + + + + + + + + + + + + + + +   > p / ) _ ..' ' ..E } | E ! ' ! W ) Q Q a + .   + + + + + + + + + + + + + + + + + + + + + + +     ",
"    + + + + + + + + + + + + + + + + + + . X , , > < z ^ / &.S.D.G.C.<.;./ x k p > % = +   + + + + + + + + + + + + + + + + . + + + + + + + + + + + + + + + + + + % . X , < < < j ^ ' >.<.F.G.G.S.>.' z k p = + 2 + . + + + + + + + + + + + + + + + + + + + . + + + + + + + + + + + + + + + + + +   = < , < h ^ / / >.<.3.3.3.2.$.' / x p , + + +   + + + + + + + + + + + + + + + + + + + . + + + + + + + + + + + + + + + + +   = , > < s z / >.<.F.C.C.F.>.' ! j p = + + + . . + + + + + + + + + + + + + + + + + + + + + + +     ",
"    + + + + + + + + + + + + + + + + + + + + . % % = < 1 h v v b b n v h < < > = + + X . + + + + + + + + + + + + + + + + + . + + + + + + + + + + + + + + + + + + + + + . % = = p h h h v b b O.b h < < > = % + + . + + + + + + + + + + + + + + + + + + + + o + + + + + + + + + + + + + + + + + + + . + = = , 1 h h v b n n O.v s 1 < > = + + + . + + + + + + + + + + + + + + + + + + + + . + + + + + + + + + + + + + + + + + + . + % % > < s h v v b b v 1 < > > % % + + . + + + + + + + + + + + + + + + + + + + + + + + + +     ",
"    + + + + + + + + + + + + + + + + + + + + +   . + + + % % % % = % + + + + + X +   . % + + + + + + + + + + + + + + + + + . + + + + + + + + + + + + + + + + + + + + + +   . + + + + % = = = = % + + + + + +     + + + + + + + + + + + + + + + + + + + + + . + + + + + + + + + + + + + + + + + + + + +   + + + + % + + = = % + + + + + @ +   . + + + + + + + + + + + + + + + + + + + + + . + + + + + + + + + + + + + + + + + + > .   + + + + + % % % % + + + + + + + .   + + + + + + + + + + + + + + + + + + + + + + + + + +     ",
"    + + + + + + + + + + + + + + + + + + + + + + . + = , , , , 1 s h < , - = + + . . + + + + + + + + + + + + + + + + + + + . + + + + + + + + + + + + + + + + + + + + + + + . + > > , , 1 h h h < > = = + + X . + + + + + + + + + + + + + + + + + + + + + + o + + + + + + + + + + + + + + + + + + + + + . . % > , p 1 p h j j < , - = + + . . + + + + + + + + + + + + + + + + + + + + + + . + + + + + + + + + + + + + + + + + + + + . + % > , p < 1 s j p , - - % + X . + + + + + + + + + + + + + + + + + + + + + + + + + + +     ",
"    + + + + + + + + + + + + + + + + + + + + + + + .   . % q p a j k a - # X . . + + + + + + + + + + + + + + + + + + + + + . + + + + + + + + + + + + + + + + + + + + + + + + .   . % - p j k k a q % X   . + + + + + + + + + + + + + + + + + + + + + + + + . + + + + + + + + + + + + + + + + + + + + + + + .   X = p j ! ! ! a q = X . . + + + + + + + + + + + + + + + + + + + + + + + + . + + + + + + + + + + + + + + + + + + + + + +   . # - p a k l k q $ # . . . + + + + + + + + + + + + + + + + + + + + + + + + + + + +     ",
"    + + + + + + + + + + + + + + + + + + + + + + @ X @.z w w w U T U e $ $ 9 k - o + + + + + + + + + + + + + + + + + + + + . + + + + + + + + + + + + + + + + + + + + + + + +   / ! w w y ~ _ U w * $ 9 k w   + + + + + + + + + + + + + + + + + + + + + + + . + + + + + + + + + + + + + + + + + + + + + + o q @.a q w y ) U u 8 $ # 9 k - o + + + + + + + + + + + + + + + + + + + + + + + . + + + + + + + + + + + + + + + + + + + + +   ! / w w w I U T u $ - - k k   + + + + + + + + + + + + + + + + + + + + + + + + + + + +     ",
"    + + + + + + + + + + + + + + + + + + + + + + + . ^ :.1.=.q 8 l / =.,.:.=.! #   + + + + + + + + + + + + + + + + + + + + . + + + + + + + + + + + + + + + + + + + + + + + + . ! :.1.;.w 8 l ^ ' ,.1.:.W -   + + + + + + + + + + + + + + + + + + + + + + + . + + + + + + + + + + + + + + + + + + + + + = . - ;.,.J.+.- e W / ` :.,.=.z $   + + + + + + + + + + + + + + + + + + + + + + + . + + + + + + + + + + + + + + + + + + + + +   a =.1.,.l 8 k ^ +.,.,.;./ a   + + + + + + + + + + + + + + + + + + + + + + + + + + + +     ",
"    + + + + + + + + + + + + + + + + + + + + + + + + . z @.J.OXjXjXkXgXJ.+.a # . + + + + + + + + + + + + + + + + + + + + + . + + + + + + + + + + + + + + + + + + + + + + + + + . k =.1.OXgXlXkXfXK.;.k # . + + + + + + + + + + + + + + + + + + + + + + + + . + + + + + + + + + + + + + + + + + + + + + + + . X +.:.J.fXhXhXkXfXJ.=.j # . + + + + + + + + + + + + + + + + + + + + + + + + . + + + + + + + + + + + + + + + + + + + + + +   a =.:.oXfXlXkXjXL.@.k & . + + + + + + + + + + + + + + + + + + + + + + + + + + + + +     ",
"    + + + + + + + + + + + + + + + + + + + + + + +   ^ ,.J.OXOXoXJ.2.! w q q w . + + + + + + + + + + + + + + + + + + + + + . + + + + + + + + + + + + + + + + + + + + + + + +   / 1.K.oXOXI.K.>.! k w q a # + + + + + + + + + + + + + + + + + + + + + + + + o + + + + + + + + + + + + + + + + + + + + + + + X @.A.K.OXfXL.J.,.z q - w q . + + + + + + + + + + + + + + + + + + + + + + + + . + + + + + + + + + + + + + + + + + + + + % o 9 ;.A.K.oXK.K.2./ l k w w # . + + + + + + + + + + + + + + + + + + + + + + + + + + + +     ",
"    + + + + + + + + + + + + + + + + + + + + + + + . - @.1.:.;.8 e =.,.1.;./ q . + + + + + + + + + + + + + + + + + + + + + . + + + + + + + + + + + + + + + + + + + + + + + + . q +.:.,.1.l w / >.1.;./ a . + + + + + + + + + + + + + + + + + + + + + + + + o + + + + + + + + + + + + + + + + + + + + + + + . k -.1.1.:.y w / 2.,.;.` w . + + + + + + + + + + + + + + + + + + + + + + + + . + + + + + + + + + + + + + + + + + + + + + + # z ,.1.,./ 8 ' ,.A.,.@.a . + + + + + + + + + + + + + + + + + + + + + + + + + + + + +     ",
"    + + + + + + + + + + + + + + + + + + + + + + + +   a =.K.fXhXgXK.:./ d & . + + + + + + + + + + + + + + + + + + + + + + . + + + + + + + + + + + + + + + + + + + + + + + + +   q ;.K.gXjXhXL.,.' k -   + + + + + + + + + + + + + + + + + + + + + + + + + . + + + + + + + + + + + + + + + + + + + + + + + +   l :.OXjXkXgXJ.,./ k - . + + + + + + + + + + + + + + + + + + + + + + + + + . + + + + + + + + + + + + + + + + + + + + + = @ # ` ,.OXhXjXL.,.! a q   + + + + + + + + + + + + + + + + + + + + + + + + + + + + + +     ",
"    + + + + + + + + + + + + + + + + + + + + + + + +   ` A.,.` -.=.z ! ` / d . + + + + + + + + + + + + + + + + + + + + + + . + + + + + + + + + + + + + + + + + + + + + + + + +   / 1.1.@.;.=.^ / ` / l # @ + + + + + + + + + + + + + + + + + + + + + + + + o + + + + + + + + + + + + + + + + + + + + + + = + # :.A.:.+.-.+.! / ` ! d . + + + + + + + + + + + + + + + + + + + + + + + + + . + + + + + + + + + + + + + + + + + + + + + = o a ;.,.` +.=.! ! ` +.z % . + + + + + + + + + + + + + + + + + + + + + + + + + + + + +     ",
"    + + + + + + + + + + + + + + + + + + + + + + + + + = k k 9 e 0 e l z ^ a . + + + + + + + + + + + + + + + + + + + + + + . + + + + + + + + + + + + + + + + + + + + + + + + + + % k k 9 y y 9 l z / k X + + + + + + + + + + + + + + + + + + + + + + + + + . + + + + + + + + + + + + + + + + + + + + + + + + + q W k w y e 9 ! ! W w . + + + + + + + + + + + + + + + + + + + + + + + + + . + + + + + + + + + + + + + + + + + + + + + + + % q l w w u w y k z k # + + + + + + + + + + + + + + + + + + + + + + + + + + + + + +     ",
"    + + + + + + + + + + + + + + + + + + + + + + + + = o   y f %.%._ w # .   + + + + + + + + + + + + + + + + + + + + + + + . + + + + + + + + + + + + + + + + + + + + + + + + + % @   y f %.%._ u X #   + + + + + + + + + + + + + + + + + + + + + + + + + + . + + + + + + + + + + + + + + + + + + + + + + + + %   * f I N.%. .y $ .   + + + + + + + + + + + + + + + + + + + + + + + + + + . + + + + + + + + + + + + + + + + + + + + + + + +   0 I ~ N. .Q $ $   + + + + + + + + + + + + + + + + + + + + + + + + + + + + + + +     ",
"    + + + + + + + + + + + + + + + + + + + + + + + + + @ X I f  .N.%.I y #   + + + + + + + + + + + + + + + + + + + + + + + . + + + + + + + + + + + + + + + + + + + + + + + + + + + . f f  .N.%.I w #   + + + + + + + + + + + + + + + + + + + + + + + + + + . + + + + + + + + + + + + + + + + + + + + + + + + % o $ I I o.N.X.u y # . + + + + + + + + + + + + + + + + + + + + + + + + + + . + + + + + + + + + + + + + + + + + + + + + + + +   w I Q %.N.Q u 9   + + + + + + + + + + + + + + + + + + + + + + + + + + + + + + +     ",
"    + + + + + + + + + + + + + + + + + + + + + + + + + + . $ I _ o.X.Q w   + + + + + + + + + + + + + + + + + + + + + + + + . + + + + + + + + + + + + + + + + + + + + + + + + + + + . # Q _ o.o.I y   + + + + + + + + + + + + + + + + + + + + + + + + + + + . + + + + + + + + + + + + + + + + + + + + + + + + + + . w Q _ o. .~ 8   + + + + + + + + + + + + + + + + + + + + + + + + + + + . + + + + + + + + + + + + + + + + + + + + + + + + + X f ~  .%.Q u X . + + + + + + + + + + + + + + + + + + + + + + + + + + + + + + +     ",
"    + + + + + + + + + + + + + + + + + + + + + + + + + + + . u ~  .%.~ 8   + + + + + + + + + + + + + + + + + + + + + + + + . + + + + + + + + + + + + + + + + + + + + + + + + + + + +   u ~  ._ ~ 8   + + + + + + + + + + + + + + + + + + + + + + + + + + + . + + + + + + + + + + + + + + + + + + + + + + + + + > o # Q _  .%.~ $   % + + + + + + + + + + + + + + + + + + + + + + + + + + . + + + + + + + + + + + + + + + + + + + + + + + + +   0 U _  . .y   + + + + + + + + + + + + + + + + + + + + + + + + + + + + + + + +     ",
"    + + + + + + + + + + + + + + + + + + + + + + + + + + + . u Q ~  .~ 8   + + + + + + + + + + + + + + + + + + + + + + + + . + + + + + + + + + + + + + + + + + + + + + + + + + + + +   y Q _  .~ 8   + + + + + + + + + + + + + + + + + + + + + + + + + + + o + + + + + + + + + + + + + + + + + + + + + + + + + > . # I ~ _ X.U $ o + + + + + + + + + + + + + + + + + + + + + + + + + + + . + + + + + + + + + + + + + + + + + + + + + + + + +   0 U ) ) ~ w   + + + + + + + + + + + + + + + + + + + + + + + + + + + + + + + +     ",
"    + + + + + + + + + + + + + + + + + + + + + + + + + + + . y f _ X.I 8   + + + + + + + + + + + + + + + + + + + + + + + + . + + + + + + + + + + + + + + + + + + + + + + + + + + % +   y f _ X.I 8   + + + + + + + + + + + + + + + + + + + + + + + + + + + . + + + + + + + + + + + + + + + + + + + + + + + + + = . * f Q  . .u # o > + + + + + + + + + + + + + + + + + + + + + + + + + + . + + + + + + + + + + + + + + + + + + + + + + + + +   8 f ~ X.~ 9   + + + + + + + + + + + + + + + + + + + + + + + + + + + + + + + +     ",
"    + + + + + + + + + + + + + + + + + + + + + + + + + + + . w I  ._ y #   + + + + + + + + + + + + + + + + + + + + + + + + . + + + + + + + + + + + + + + + + + + + + + + + + + + + +   0 f _ _ f #   + + + + + + + + + + + + + + + + + + + + + + + + + + +   + + + + + + + + + + + + + + + + + + + + + + + + + % . # y Q _ T w X . % + + + + + + + + + + + + + + + + + + + + + + + + + + . + + + + + + + + + + + + + + + + + + + + + + + + +   8 u ~ _ I $   + + + + + + + + + + + + + + + + + + + + + + + + + + + + + + + +     ",
"    + + + + + + + + + + + + + + + + + + + + + + + + + + +   # w f y % . . + + + + + + + + + + + + + + + + + + + + + + + + . + + + + + + + + + + + + + + + + + + + + + + + + + + + +   # w f y - .   + + + + + + + + + + + + + + + + + + + + + + + + + + + . + + + + + + + + + + + + + + + + + + + + + + + + + > . . - y l y %   . + + + + + + + + + + + + + + + + + + + + + + + + + + + . + + + + + + + + + + + + + + + + + + + + + + + + +   # 9 u u 9 X   + + + + + + + + + + + + + + + + + + + + + + + + + + + + + + + +     ",
"    + + + + + + + + + + + + + + + + + + + + + + + + + + + . a k Q l p %   + + + + + + + + + + + + + + + + + + + + + + + + . + + + + + + + + + + + + + + + + + + + + + + + + + + + +   k k W l a =   + + + + + + + + + + + + + + + + + + + + + + + + + + + . + + + + + + + + + + + + + + + + + + + + + + + + + > . # k l Q d p X . + + + + + + + + + + + + + + + + + + + + + + + + + + + . + + + + + + + + + + + + + + + + + + + + + + + + +   q k Q W a q   + + + + + + + + + + + + + + + + + + + + + + + + + + + + + + + +     ",
"    + + + + + + + + + + + + + + + + + + + + + + + + + + + . + k  .T - @ + + + + + + + + + + + + + + + + + + + + + + + + + . + + + + + + + + + + + + + + + + + + + + + + + + + + + + . + k _ T q + X + + + + + + + + + + + + + + + + + + + + + + + + + + + . + + + + + + + + + + + + + + + + + + + + + + + + + + + . = W  .I = . + + + + + + + + + + + + + + + + + + + + + + + + + + + + . + + + + + + + + + + + + + + + + + + + + + + + + + . @ p ) _ w + . + + + + + + + + + + + + + + + + + + + + + + + + + + + + + + + +     ",
"    + + + + + + + + + + + + + + + + + + + + + + + + + + + + + @ X . . + + + + + + + + + + + + + + + + + + + + + + + + + + . + + + + + + + + + + + + + + + + + + + + + + + + + + + + + + @ X X . + + + + + + + + + + + + + + + + + + + + + + + + + + + + + . + + + + + + + + + + + + + + + + + + + + + + + + + + + + + . X . @ + + + + + + + + + + + + + + + + + + + + + + + + + + + + + . + + + + + + + + + + + + + + + + + + + + + + + + + + + @ . X . + + + + + + + + + + + + + + + + + + + + + + + + + + + + + + + + + +     ",
"    + + + + + + + + + + + + + + + + + + + + + + + + + + + + + + + + + + + + + + + + + + + + + + + + + + + + + + + + + + + . + + + + + + + + + + + + + + + + + + + + + + + + + + + + + + + + + + + + + + + + + + + + + + + + + + + + + + + + + + + + + + + o + + + + + + + + + + + + + + + + + + + + + + + + + + + + + + + + + + + + + + + + + + + + + + + + + + + + + + + + + + + + + + . + + + + + + + + + + + + + + + + + + + + + + + + + + + + + + + + + + + + + + + + + + + + + + + + + + + + + + + + + + + + + + + + +     ",
"    + + + + + + + + + + + + + + + + + + + + + + + + + + + + + + + + + + + + + + + + + + + + + + + + + + + + + + + + + + + . + + + + + + + + + + + + + + + + + + + + + + + + + + + + + + + + + + + + + + + + + + + + + + + + + + + + + + + + + + + + + + + o + + + + + + + + + + + + + + + + + + + + + + + + + + + + + + + + + + + + + + + + + + + + + + + + + + + + + + + + + + + + + + . + + + + + + + + + + + + + + + + + + + + + + + + + + + + + + + + + + + + + + + + + + + + + + + + + + + + + + + + + + + + + + + + +     ",
"                                                                                                                                                                                                                                                                                                                                                                                                                                                                                                                                ",
"                                                                                                                                                                                                                                                                                                                                                                                                                                                                                                                                "
};
